X: 9568
T: David Adams
R: reel
M: 4/4
K: Amajor
E|A2cA GBBc|d2BA GE~E2|A2cA Bcdf|ecdB cAAE|
A2cA GBBc|d2BA GE~E2|A2cA Bcdf|ecdB cAAg||
a2ea fdda|b2fa geeg|agae defa|ecdB cAAg|
a2ea fdda|b2fa geeg|agae defa|ecdB A3||
E|A2 cA GABc|dFBA GBEG|A2 cA Bcdf|ecdB A/A/A A:|
B|Aaga fedc|dFBA GBEG|Aaga fedc|dfec A/A/A AB|
Aaga fedc|dFBA GBEG|AcBd cedf|ecdB A/A/A A||
E|A/A/A cA GABc|dcBA GEFG|A/A/A cA Bcdf|ecdB cAAa|
A/A/A cA GABc|dcBA GFEG|AcEc ABcd|ecdB cAAa||
aAag fddf|bBba geeg|aAag fdaf|ecdB cAAg|
a/a/a Aa fddf b/b/b Bb geeg|agae faea|ecdB cAA||

